X:1329
L:1/8
Q:1/8=180
M:4/4
K:G
 Bc | dB B2 GEDE | G2 BG dGBG | AGAB AGED | (3EFG AB c2 Bc | dB B2 GEDE | G2 BG dGBG | B2 BA BedB | 
 AGAB G2 :| ga | bggg bggg | afff afff | bggg bggg | eaa^g a2 ga | bg (3gfg agef | gfge dBGA | 
 B2 BA BedB | AGAB G2 :|

